src/icons/svg/client.svg

<?xml version="1.0" encoding="UTF-8"?>
<svg width="40px" height="39px" viewBox="0 0 40 39" version="1.1" xmlns="http://www.w3.org/2000/svg"
>
    <path d="M38.6212644,28.8926157 L1.37831898,28.8926157 C0.617493568,28.8926157 0,28.2759555 0,27.5142967 L0,1.37831898 C0,0.617076905 0.617493568,0 1.37831898,0 L38.621681,0 C39.3825064,0 40,0.616660243 40,1.37831898 L40,27.5142967 C39.9995833,28.2759555 39.3820898,28.8926157 38.6212644,28.8926157 Z M2.75622129,26.1363944 L37.2429454,26.1363944 L37.2429454,2.75663795 L2.75622129,2.75663795 L2.75622129,26.1363944 Z"
          id="形状"></path>
    <path d="M19.9997917,38.8079291 C19.2389663,38.8079291 18.6214727,38.1912688 18.6214727,37.4296101 L18.6214727,27.805127 C18.6214727,27.043885 19.2389663,26.4268081 19.9997917,26.4268081 C20.7606171,26.4268081 21.3781106,27.0434683 21.3781106,27.805127 L21.3781106,37.4296101 C21.3781106,38.1908522 20.7606171,38.8079291 19.9997917,38.8079291 Z"
          id="路径"></path>
    <path d="M30.4167665,38.8079291 L9.58156686,38.8079291 C8.82074145,38.8079291 8.20324788,38.1912688 8.20324788,37.4296101 C8.20324788,36.668368 8.82074145,36.0512911 9.58156686,36.0512911 L30.4167665,36.0512911 C31.1775919,36.0512911 31.7950855,36.6679514 31.7950855,37.4296101 C31.7950855,38.1908522 31.1775919,38.8079291 30.4167665,38.8079291 Z M21.4685264,19.1631337 C21.11603,19.1631337 20.7631171,19.0285518 20.4939532,18.7593879 C19.9556255,18.2214769 19.9556255,17.3485693 20.4939532,16.8106582 L24.1772482,13.1273633 C24.7155759,12.5890355 25.5876501,12.5890355 26.1259779,13.1273633 C26.6643056,13.6652743 26.6643056,14.5381819 26.1259779,15.076093 L22.4426829,18.7593879 C22.1739357,19.0285518 21.8210227,19.1631337 21.4685264,19.1631337 L21.4685264,19.1631337 Z M12.4907032,19.1631337 C12.1382069,19.1631337 11.7852939,19.0285518 11.51613,18.7593879 C10.9778023,18.2214769 10.9778023,17.3485693 11.51613,16.8106582 L19.329382,8.99740628 C19.8677097,8.45907855 20.739784,8.45907855 21.2781117,8.99740628 C21.8164394,9.53531734 21.8164394,10.4082249 21.2781117,10.946136 L13.4652764,18.7593879 C13.1961125,19.0285518 12.8431996,19.1631337 12.4907032,19.1631337 L12.4907032,19.1631337 Z"
          id="形状"></path>
</svg>

<svg width="40" height="39" xmlns="http://www.w3.org/2000/svg"><path d="M38.621 28.893H1.378c-.76 0-1.378-.617-1.378-1.379V1.378C0 .618.617 0 1.378 0h37.244C39.382 0 40 .617 40 1.378v26.136c0 .762-.618 1.379-1.379 1.379zM2.756 26.136h34.487V2.756H2.756v23.38z"/><path d="M20 38.808c-.761 0-1.379-.617-1.379-1.378v-9.625a1.379 1.379 0 0 1 2.757 0v9.625c0 .76-.617 1.378-1.378 1.378z"/><path d="M30.417 38.808H9.582a1.378 1.378 0 1 1 0-2.757h20.835a1.378 1.378 0 1 1 0 2.757zm-8.948-19.645a1.378 1.378 0 0 1-.975-2.352l3.683-3.684a1.378 1.378 0 1 1 1.949 1.95l-3.683 3.682c-.27.27-.622.404-.974.404zm-8.978 0a1.378 1.378 0 0 1-.975-2.352l7.813-7.814a1.378 1.378 0 1 1 1.95 1.95l-7.814 7.812c-.269.27-.622.404-.974.404z"/></svg>
